src/assets/svg/ifexes.svg

<svg width="124" height="80" viewBox="0 0 124 80" fill="none" xmlns="http://www.w3.org/2000/svg">
<path fill-rule="evenodd" clip-rule="evenodd" d="M5.08606 62.1393C6.63224 62.6217 7.74657 64.0016 7.74657 65.6283C7.74657 67.6566 6.01243 69.3012 3.87328 69.3012C1.73414 69.3012 0 67.6566 0 65.6283C0 63.9589 1.17474 62.5499 2.78134 62.1034V36.588L18.8719 24.1983V10.2447L21.2505 11.5663L21.2863 24.7862L15.3544 29.5271V52.3455C16.7708 52.893 17.771 54.2101 17.771 55.7492C17.771 57.7775 16.0369 59.4222 13.8977 59.4222C11.7586 59.4222 10.0244 57.7775 10.0244 55.7492C10.0244 54.0351 11.2618 52.5946 12.9378 52.1907V31.4634L5.09054 37.7346V62.1415L5.08606 62.1393ZM26.7169 50.2634V74.7668L24.2959 76.0166V50.3105C22.7116 49.8506 21.5593 48.4505 21.5593 46.7969C21.5593 44.7686 23.2934 43.1239 25.4326 43.1239C27.5717 43.1239 29.3058 44.7686 29.3058 46.7969C29.3058 48.3989 28.2228 49.763 26.7147 50.2634H26.7169ZM36.4527 41.661V65.3388L34.148 66.6895V42.9512L24.2847 34.1559V7.1417C22.7743 6.63911 21.6913 5.27718 21.6913 3.67294C21.6913 1.64463 23.4254 0 25.5646 0C27.7037 0 29.4379 1.64463 29.4379 3.67294C29.4379 5.36469 28.2318 6.78944 26.5894 7.21574V32.9443L36.4527 41.661Z" fill="#4D4D4D"/>
<path fill-rule="evenodd" clip-rule="evenodd" d="M49.8828 29.7717L50.2296 29.7964C51.3417 29.7447 52.9259 29.1838 55.0047 28.1136C57.0834 27.0411 58.7101 25.9529 59.8893 24.84C59.1599 27.1286 57.871 29.0492 56.0138 30.5884C53.1989 32.9443 51.297 34.1267 50.3057 34.1267C49.6434 34.1267 49.3145 33.7183 49.3145 32.9106C49.3145 31.7461 49.5002 30.6983 49.8828 29.7717Z" fill="#4D4D4D"/>
<path fill-rule="evenodd" clip-rule="evenodd" d="M54.8257 61.8656C53.3354 62.5858 51.9213 62.947 50.5832 62.947C48.7372 62.947 47.2536 62.3457 46.1326 61.1386C45.0026 59.9382 44.4387 58.3497 44.4387 56.3887C44.4387 55.6438 44.5998 54.4613 44.9288 52.8459L45.468 50.1243C46.2691 46.1933 46.6651 43.438 46.6651 41.8495C46.6651 40.9116 46.3877 40.1421 45.8305 39.5497C47.9719 39.0516 49.3033 38.8048 49.8515 38.8048C51.0665 38.8048 51.6729 39.6597 51.6729 41.3738C51.6729 42.6415 51.4379 44.4679 50.9658 46.835L50.0059 51.6522C49.5337 53.9767 49.2988 55.489 49.2988 56.1733C49.2988 58.2195 50.167 59.2427 51.8944 59.2427C52.861 59.2427 53.9798 58.859 55.2486 58.0917L54.8279 61.8633L54.8257 61.8656Z" fill="#4D4D4D"/>
<path fill-rule="evenodd" clip-rule="evenodd" d="M72.5474 52.3343C65.772 61.6143 61.5765 70.5891 59.9475 79.2565C55.9735 76.8041 53.9866 74.3361 53.9866 71.8321C53.9866 66.7232 59.1823 58.6189 69.5759 47.5328C67.2153 43.548 64.9911 38.6612 62.9191 32.8882C60.8314 27.1151 59.7954 22.9441 59.7954 20.3728C59.7954 17.649 63.107 15.7059 69.7124 14.5841C69.4909 15.3155 69.3723 15.9796 69.3723 16.5765C69.3723 22.6389 71.9545 30.6759 77.1166 40.7052C85.7426 30.7095 90.0567 22.7758 90.0567 16.8839L90.0052 16.2377C90.4124 16.204 91.312 16.1345 92.7395 16.0335H93.3504C96.9328 16.0335 98.7162 17.0028 98.7162 18.9279C98.7162 23.7294 92.3659 32.4484 79.6451 45.1006C83.4848 51.0958 95.6171 57.975 99.8551 59.3122C97.3221 67.5085 80.0076 64.0711 72.5452 52.3388L72.5474 52.3343Z" fill="#4D4D4D"/>
<path d="M107.681 52.8495C108.304 54.2474 108.616 55.581 108.616 56.8501C108.616 59.6644 107.442 62.1107 105.094 64.1892C102.746 66.2861 99.9947 67.3345 96.8396 67.3345C94.9869 67.3345 93.4093 66.8563 92.1069 65.8998C90.8045 64.9434 90.1533 63.7938 90.1533 62.451C90.1533 61.0163 91.043 59.5632 92.8223 58.0917C94.62 56.6202 97.6192 54.8728 101.82 52.8495L99.6187 49.2903C96.9405 44.9678 95.6014 41.5926 95.6014 39.1646C95.6014 35.6698 97.6284 32.8556 101.682 30.7219C104.177 31.6784 105.424 32.8832 105.424 34.3363C105.424 36.3964 103.838 38.3737 100.664 40.2682L103.801 46.0623L106.25 50.5319C109.754 48.435 112.395 46.6417 114.174 45.1518C115.954 43.6435 118.201 41.3259 120.916 38.199L123.117 39.5509C119.173 44.8483 114.028 49.2811 107.681 52.8495ZM103.003 55.3327C97.61 58.2389 94.9135 60.4921 94.9135 62.0923C94.9135 63.6006 96.005 64.3548 98.1879 64.3548C99.8021 64.3548 101.114 63.8029 102.123 62.6993C103.131 61.6141 103.636 60.207 103.636 58.478C103.636 57.4479 103.425 56.3995 103.003 55.3327Z" fill="#4D4D4D"/>
</svg>

<svg xmlns="http://www.w3.org/2000/svg" width="124" height="80" fill="none"><path fill="#4D4D4D" fill-rule="evenodd" d="M5.086 62.14c1.546.482 2.66 1.862 2.66 3.488 0 2.029-1.734 3.673-3.873 3.673S0 67.657 0 65.628c0-1.67 1.175-3.078 2.781-3.525V36.588l16.09-12.39V10.245l2.38 1.321.035 13.22-5.932 4.741v22.819c1.417.547 2.417 1.864 2.417 3.403 0 2.029-1.734 3.673-3.873 3.673s-3.874-1.644-3.874-3.673c0-1.714 1.238-3.154 2.914-3.558V31.463L5.09 37.735v24.407zm21.63-11.877v24.504l-2.42 1.25V50.31c-1.584-.46-2.737-1.86-2.737-3.514 0-2.028 1.734-3.673 3.874-3.673 2.139 0 3.873 1.645 3.873 3.673 0 1.602-1.083 2.966-2.591 3.466zm9.737-8.602v23.678l-2.305 1.35V42.951l-9.863-8.795V7.142c-1.51-.503-2.594-1.865-2.594-3.47C21.691 1.646 23.425 0 25.565 0c2.139 0 3.873 1.645 3.873 3.673 0 1.692-1.206 3.116-2.849 3.543v25.728zm13.43-11.889.347.024c1.112-.051 2.696-.612 4.775-1.682 2.078-1.073 3.705-2.161 4.884-3.274a12.1 12.1 0 0 1-3.875 5.748c-2.815 2.356-4.717 3.539-5.708 3.539-.663 0-.991-.409-.991-1.216 0-1.165.185-2.213.568-3.14m4.943 32.095q-2.236 1.08-4.243 1.081-2.77.001-4.45-1.808c-1.13-1.2-1.694-2.79-1.694-4.75 0-.745.16-1.928.49-3.543l.539-2.722c.801-3.93 1.197-6.686 1.197-8.275 0-.937-.277-1.707-.834-2.3 2.14-.497 3.472-.744 4.02-.744q1.822-.001 1.822 2.569c0 1.267-.235 3.094-.707 5.461l-.96 4.817c-.472 2.325-.707 3.837-.707 4.521 0 2.046.868 3.07 2.595 3.07q1.451 0 3.355-1.151l-.421 3.771z" clip-rule="evenodd"/><path fill="#4D4D4D" fill-rule="evenodd" d="M72.547 52.334c-6.775 9.28-10.97 18.255-12.6 26.923-3.974-2.453-5.96-4.92-5.96-7.425 0-5.109 5.195-13.213 15.589-24.3-2.36-3.984-4.585-8.87-6.657-14.644-2.088-5.773-3.124-9.944-3.124-12.515 0-2.724 3.312-4.667 9.917-5.789-.221.732-.34 1.396-.34 1.992 0 6.063 2.582 14.1 7.745 24.13 8.626-9.997 12.94-17.93 12.94-23.822l-.052-.646c.407-.034 1.307-.104 2.735-.204h.61c3.583 0 5.366.969 5.366 2.894 0 4.801-6.35 13.52-19.07 26.173 3.839 5.995 15.971 12.874 20.21 14.211-2.534 8.197-19.848 4.76-27.31-6.973z" clip-rule="evenodd"/><path fill="#4D4D4D" d="M107.681 52.85q.935 2.096.935 4 0 4.22-3.522 7.34-3.522 3.144-8.254 3.145-2.779 0-4.733-1.435t-1.954-3.449q0-2.152 2.67-4.36 2.696-2.206 8.997-5.242l-2.201-3.559q-4.017-6.483-4.018-10.125 0-5.243 6.081-8.443 3.742 1.434 3.742 3.614 0 3.09-4.76 5.932l3.137 5.794 2.449 4.47q5.256-3.145 7.924-5.38 2.67-2.262 6.742-6.953l2.201 1.352q-5.916 7.946-15.436 13.298m-4.678 2.483q-8.09 4.36-8.09 6.76 0 2.262 3.275 2.262 2.421 0 3.935-1.656 1.513-1.628 1.513-4.221 0-1.545-.633-3.145"/></svg>
